X: 7174
T: Ciaran And Berni
R: waltz
M: 3/4
K: Dmajor
D2 A3B|A4 FG|d2 G2 F2|E2 G2 F2|
D2 F2 E2|E2 G2 FD|A2 d3 E/D/|F/E/ E3- E G/F/|
D2 A3G/F/|A4- A F/G/|d2 G2 FG|E2 G3F|
D2 E2 ED|F/E/ E3- ED|1 D6-|D4 AF:|2 D6-|D4 d2||
c2 A2 D2|B4 BA|B2 A3A|c2 d2 e2|
f2 d2 D2|B4 BA|AB G2 F2|E4 D2|
F2 G3D|G2 A3D|A2 B2 c2|d4 D2|
D2 E2 FA|E4 D2|G6|F4 D2|D2 E2 ED|F/E/ E3- ED||

